assets/media/stacked-peaks.svg

<?xml version="1.0" encoding="UTF-8"?>
<svg xmlns="http://www.w3.org/2000/svg" version="1.1" viewBox="0 0 960 540">
  <defs>
    <style>
      .cls-1 {
        fill: #896840;
      }

      .cls-2 {
        fill: #012;
      }

      .cls-3 {
        fill: #01223d;
      }

      .cls-4 {
        fill: #98a085;
      }

      .cls-5 {
        fill: #c46f00;
      }

      .cls-6 {
        fill: #998e6b;
      }
    </style>
  </defs>
  <!-- Generator: Adobe Illustrator 28.7.1, SVG Export Plug-In . SVG Version: 1.2.0 Build 142)  -->
  <g>
    <g id="visual">
      <rect class="cls-2" width="960" height="540"/>
      <path class="cls-5" d="M0,335l22.8,6c22.9,6,68.5,18,114.2,26.5s91.3,13.5,137,12c45.7-1.5,91.3-9.5,137.2-15.5,45.8-6,91.8-10,137.6-16.5,45.9-6.5,91.5-15.5,137.2-18.2,45.7-2.6,91.3,1,137,4.9,45.7,3.8,91.3,7.8,114.2,9.8l22.8,2v195H0v-206Z"/>
      <path class="cls-1" d="M0,427l22.8-8c22.9-8,68.5-24,114.2-29s91.3,1,137,7.5c45.7,6.5,91.3,13.5,137.2,11.3,45.8-2.1,91.8-13.5,137.6-23.3,45.9-9.8,91.5-18.2,137.2-19.3,45.7-1.2,91.3,4.8,137,8.8s91.3,6,114.2,7l22.8,1v158H0v-114Z"/>
      <path class="cls-6" d="M0,434l22.8,3.7c22.9,3.6,68.5,11,114.2,11.5s91.3-5.9,137-16.4c45.7-10.5,91.3-25.1,137.2-31.3,45.8-6.2,91.8-3.8,137.6.7,45.9,4.5,91.5,11.1,137.2,13,45.7,1.8,91.3-1.2,137,1,45.7,2.1,91.3,9.5,114.2,13.1l22.8,3.7v108H0v-107Z"/>
      <path class="cls-4" d="M0,452l22.8-2.5c22.9-2.5,68.5-7.5,114.2-10.7,45.7-3.1,91.3-4.5,137,1.4,45.7,5.8,91.3,18.8,137.2,25.8,45.8,7,91.8,8,137.6,10.3,45.9,2.4,91.5,6,137.2,5.7s91.3-4.7,137-5.8c45.7-1.2,91.3.8,114.2,1.8l22.8,1v62H0v-89Z"/>
      <path class="cls-3" d="M0,506l22.8-5c22.9-5,68.5-15,114.2-13.5s91.3,14.5,137,19.7c45.7,5.1,91.3,2.5,137.2-4,45.8-6.5,91.8-16.9,137.6-17.9,45.9-1,91.5,7.4,137.2,11.9s91.3,5.1,137,5c45.7-.2,91.3-1.2,114.2-1.7l22.8-.5v41H0v-35Z"/>
    </g>
  </g>
</svg>

<svg id="visual" viewBox="0 0 960 540" width="960" height="540" xmlns="http://www.w3.org/2000/svg" xmlns:xlink="http://www.w3.org/1999/xlink" version="1.1"><rect x="0" y="0" width="960" height="540" fill="#001122"></rect><path d="M0 335L22.8 341C45.7 347 91.3 359 137 367.5C182.7 376 228.3 381 274 379.5C319.7 378 365.3 370 411.2 364C457 358 503 354 548.8 347.5C594.7 341 640.3 332 686 329.3C731.7 326.7 777.3 330.3 823 334.2C868.7 338 914.3 342 937.2 344L960 346L960 541L937.2 541C914.3 541 868.7 541 823 541C777.3 541 731.7 541 686 541C640.3 541 594.7 541 548.8 541C503 541 457 541 411.2 541C365.3 541 319.7 541 274 541C228.3 541 182.7 541 137 541C91.3 541 45.7 541 22.8 541L0 541Z" fill="#fcaf3c"></path><path d="M0 427L22.8 419C45.7 411 91.3 395 137 390C182.7 385 228.3 391 274 397.5C319.7 404 365.3 411 411.2 408.8C457 406.7 503 395.3 548.8 385.5C594.7 375.7 640.3 367.3 686 366.2C731.7 365 777.3 371 823 375C868.7 379 914.3 381 937.2 382L960 383L960 541L937.2 541C914.3 541 868.7 541 823 541C777.3 541 731.7 541 686 541C640.3 541 594.7 541 548.8 541C503 541 457 541 411.2 541C365.3 541 319.7 541 274 541C228.3 541 182.7 541 137 541C91.3 541 45.7 541 22.8 541L0 541Z" fill="#fec36f"></path><path d="M0 434L22.8 437.7C45.7 441.3 91.3 448.7 137 449.2C182.7 449.7 228.3 443.3 274 432.8C319.7 422.3 365.3 407.7 411.2 401.5C457 395.3 503 397.7 548.8 402.2C594.7 406.7 640.3 413.3 686 415.2C731.7 417 777.3 414 823 416.2C868.7 418.3 914.3 425.7 937.2 429.3L960 433L960 541L937.2 541C914.3 541 868.7 541 823 541C777.3 541 731.7 541 686 541C640.3 541 594.7 541 548.8 541C503 541 457 541 411.2 541C365.3 541 319.7 541 274 541C228.3 541 182.7 541 137 541C91.3 541 45.7 541 22.8 541L0 541Z" fill="#ffd69f"></path><path d="M0 452L22.8 449.5C45.7 447 91.3 442 137 438.8C182.7 435.7 228.3 434.3 274 440.2C319.7 446 365.3 459 411.2 466C457 473 503 474 548.8 476.3C594.7 478.7 640.3 482.3 686 482C731.7 481.7 777.3 477.3 823 476.2C868.7 475 914.3 477 937.2 478L960 479L960 541L937.2 541C914.3 541 868.7 541 823 541C777.3 541 731.7 541 686 541C640.3 541 594.7 541 548.8 541C503 541 457 541 411.2 541C365.3 541 319.7 541 274 541C228.3 541 182.7 541 137 541C91.3 541 45.7 541 22.8 541L0 541Z" fill="#ffeacf"></path><path d="M0 506L22.8 501C45.7 496 91.3 486 137 487.5C182.7 489 228.3 502 274 507.2C319.7 512.3 365.3 509.7 411.2 503.2C457 496.7 503 486.3 548.8 485.3C594.7 484.3 640.3 492.7 686 497.2C731.7 501.7 777.3 502.3 823 502.2C868.7 502 914.3 501 937.2 500.5L960 500L960 541L937.2 541C914.3 541 868.7 541 823 541C777.3 541 731.7 541 686 541C640.3 541 594.7 541 548.8 541C503 541 457 541 411.2 541C365.3 541 319.7 541 274 541C228.3 541 182.7 541 137 541C91.3 541 45.7 541 22.8 541L0 541Z" fill="#ffffff"></path></svg>
